svg/brands/kakao-square.svg

<svg width="448" height="512" viewBox="0 0 448 512" version="1.1" xmlns="http://www.w3.org/2000/svg"><path fill="currentColor" d="M400,480l-352,0c-26.51,0 -48,-21.49 -48,-48l0,-352c0,-26.51 21.49,-48 48,-48l352,0c26.51,0 48,21.49 48,48l0,352c0,26.51 -21.49,48 -48,48Zm-95.732,-351.143c-24.583,-11.238 -51.339,-16.857 -80.268,-16.857c-28.929,0 -55.685,5.619 -80.268,16.857c-24.583,11.238 -44.018,26.519 -58.303,45.843c-14.286,19.325 -21.429,40.403 -21.429,63.236c0,22.119 6.756,42.603 20.268,61.452c13.512,18.848 31.756,33.981 54.732,45.397c-10.119,34.011 -15.536,53.336 -16.25,57.974l0,0.713c0,0.476 0.119,1.011 0.357,1.605c0.238,0.595 0.595,1.071 1.072,1.428c1.19,0.594 2.44,0.654 3.75,0.178c2.738,-0.357 25.297,-15.222 67.678,-44.595c9.762,1.308 19.226,1.962 28.393,1.962c29.048,0 55.833,-5.619 80.357,-16.857c24.524,-11.238 43.929,-26.548 58.214,-45.932c14.286,-19.384 21.429,-40.493 21.429,-63.325c0,-22.833 -7.143,-43.911 -21.429,-63.236c-14.285,-19.324 -33.72,-34.605 -58.303,-45.843Z"></path></svg>

<svg width="448" height="512" viewBox="0 0 448 512" fill="none" xmlns="http://www.w3.org/2000/svg">
<path fill-rule="evenodd" clip-rule="evenodd" d="M48 32C21.4903 32 0 53.4903 0 80V432C0 458.51 21.4903 480 48 480H400C426.51 480 448 458.51 448 432V80C448 53.4903 426.51 32 400 32H48ZM304.268 128.857C279.685 117.619 252.929 112 224 112C195.071 112 168.315 117.619 143.732 128.857C119.149 140.095 99.7143 155.376 85.4286 174.7C71.1429 194.025 64 215.103 64 237.936C64 260.055 70.756 280.539 84.2679 299.388C97.7798 318.236 116.024 333.369 139 344.785C128.881 378.796 123.464 398.121 122.75 402.759V403.472C122.75 403.948 122.869 404.483 123.107 405.077C123.345 405.672 123.702 406.148 124.179 406.505C125.369 407.099 126.619 407.159 127.929 406.683C130.667 406.326 153.226 391.461 195.607 362.088C205.369 363.396 214.833 364.05 224 364.05C253.048 364.05 279.833 358.431 304.357 347.193C328.881 335.955 348.286 320.645 362.571 301.261C376.857 281.877 384 260.768 384 237.936C384 215.103 376.857 194.025 362.571 174.7C348.286 155.376 328.851 140.095 304.268 128.857Z" fill="black"/>
</svg>
